X: 43569
T: Young Dan's
R: jig
M: 6/8
K: Gmajor
|:gdB cAF|GAF G2E|DGB DGc|DGB A3|
B2B c2c|dge faf|g2g gdB|1 cAF G2f:|2 cAF G2A||
|:B2B dBG|GBd g2e|=f2f fcA|=FAc =fcA|
B2B c2c|dge faf|g2g gdB|1 cAF G2A:|2 cAF G2f||

